icons-dark/status/64/security-medium.svg

<?xml version="1.0" encoding="UTF-8" standalone="no"?>

<!-- Created with Inkscape (http://www.inkscape.org/) -->
<svg width="64" version="1.1" xmlns="http://www.w3.org/2000/svg" height="64" xmlns:xlink="http://www.w3.org/1999/xlink" xmlns:inkscape="http://www.inkscape.org/namespaces/inkscape">
 <defs id="defs3811">
  <linearGradient inkscape:collect="always" id="linearGradient4155">
   <stop style="stop-color:#fcd994" id="stop4157"/>
   <stop offset="1" style="stop-color:#fff6e1" id="stop4159"/>
  </linearGradient>
  <linearGradient inkscape:collect="always" id="linearGradient4227">
   <stop style="stop-color:#292c2f" id="stop4229"/>
   <stop offset="1" style="stop-opacity:0" id="stop4231"/>
  </linearGradient>
  <linearGradient inkscape:collect="always" id="linearGradient4191-1-7" xlink:href="#linearGradient4227" y1="9" y2="23" x1="9.00001" gradientUnits="userSpaceOnUse" x2="23.00004" gradientTransform="matrix(2 0 0 2 735.85719 158.93361)"/>
  <linearGradient inkscape:collect="always" id="linearGradient4143-6">
   <stop style="stop-color:#faae2a" id="stop4145-8"/>
   <stop offset="1" style="stop-color:#ffc35a" id="stop4147-0"/>
  </linearGradient>
  <linearGradient inkscape:collect="always" xlink:href="#linearGradient4143-6" id="linearGradient4181" y1="6" x1="32" y2="57" x2="31" gradientUnits="userSpaceOnUse"/>
  <linearGradient inkscape:collect="always" xlink:href="#linearGradient4155" id="linearGradient4190" y1="17" y2="41" x2="0" gradientUnits="userSpaceOnUse"/>
 </defs>
 <metadata id="metadata3814"/>
 <g inkscape:label="Layer 1" inkscape:groupmode="layer" id="layer1" transform="matrix(1 0 0 1 -736.85718 -157.93361)">
  <path style="fill:url(#linearGradient4181);stroke-linecap:square;stroke-width:2" id="rect4186-2-1" d="M 32 6 C 25.66667 9.35447 19.33333 10.72491 13 12 L 13 37 C 13 44 23.26331 53.561337 32 57.998047 C 40.73669 53.561337 51 44 51 37 L 51 12 C 44.66667 10.72491 38.33333 9.35447 32 6 z " transform="matrix(1 0 0 1 736.85718 157.93361)"/>
  <path inkscape:connector-curvature="0" style="fill:url(#linearGradient4191-1-7);opacity:0.2;fill-rule:evenodd" id="path4184-5" d="m 769.85718,174.93361 -2,0 0,20 2,2 -2,2 16,17 11,0 0,-18 z"/>
  <path style="fill:url(#linearGradient4190);stroke-linecap:square;stroke-width:2" id="rect4179" d="M 31 17 L 31 37 L 33 37 L 33 17 L 31 17 z M 31 39 L 31 41 L 33 41 L 33 39 L 31 39 z " transform="matrix(1 0 0 1 736.85718 157.93361)"/>
  <path style="fill:#e59305;stroke-linecap:square;stroke-width:2" id="rect4186-2-1-5" d="M 13 35 L 13 37 C 13 44 23.26331 53.561337 32 57.998047 C 40.73669 53.561337 51 44 51 37 L 51 35 C 51 42 40.73669 51.561337 32 55.998047 C 23.26331 51.561337 13 42 13 35 z " transform="matrix(1 0 0 1 736.85718 157.93361)"/>
 </g>
</svg>

<svg width="64" height="64" version="1.1" xmlns="http://www.w3.org/2000/svg">
 <defs>
  <linearGradient id="b" x1="8" x2="22" y1="9" y2="23" gradientTransform="matrix(2,0,0,2,0,1)" gradientUnits="userSpaceOnUse">
   <stop stop-color="#292c2f" offset="0"/>
   <stop stop-opacity="0" offset="1"/>
  </linearGradient>
  <linearGradient id="c" x2="0" y1="17" y2="41" gradientUnits="userSpaceOnUse">
   <stop stop-color="#fcd994" offset="0"/>
   <stop stop-color="#fff6e1" offset="1"/>
  </linearGradient>
  <linearGradient id="a" x1="32" x2="32" y1="8" y2="42" gradientUnits="userSpaceOnUse">
   <stop stop-color="#faae2a" offset="0"/>
   <stop stop-color="#ffc35a" offset="1"/>
  </linearGradient>
 </defs>
 <path d="m13 35v2c0 7 10.26 16.56 19 21 8.737-4.437 19-14 19-21v-2h-38" fill="#e59305"/>
 <path d="m32 6c-6.333 3.354-12.67 4.725-19 6v23c0 7 10.26 16.56 19 21 8.737-4.437 19-14 19-21v-23c-6.333-1.275-12.67-2.646-19-6" fill="url(#a)"/>
 <path d="m31 17v20l2 2-2 2 16 17h4v-24.44l-18-16.56h-2" fill="url(#b)" fill-rule="evenodd" opacity=".2"/>
 <path d="m31 17v20h2v-20h-2m0 22v2h2v-2h-2" fill="url(#c)"/>
</svg>
